X: 1
T: Ettrick Banks
R: reel
M: 4/4
L: 1/8
K: Fmaj
(3FGA|F3 E D2 Ac|d>c Ac d3 f|dc BA f3 A|BA GF G2 A>G|
F3 E D2 Ac|d>c Ac d3 e|fg fe d>e fd|c2 A>B A2||
(3cde|f3 g f2 F2|A>B cd c2 BA|F3 g gfed|e>f ga g2 f>g|
a3 g f2 F2|A2 c2 a3 g|f>g fe d>e fd|c2 AB A2||

